build/img/time-desctop.svg

<svg width="298" height="345" viewBox="0 0 298 345" fill="none" xmlns="http://www.w3.org/2000/svg">
<path d="M264.586 102.035L269.936 96.676C277.656 88.9579 279.066 77.7407 273.066 71.7522C267.066 65.7637 255.846 67.1533 248.136 74.8714L242.746 80.2601C221.304 62.8474 195.42 51.7734 168.016 48.288V38.7004H175.676C186.586 38.7004 195.516 29.9925 195.516 19.3552C195.516 8.71783 186.586 0 175.676 0H122.356C111.446 0 102.516 8.70784 102.516 19.3552C102.516 30.0025 111.446 38.7004 122.356 38.7004H130.016V48.288C97.2841 52.4916 66.8739 67.4402 43.5572 90.7884C20.2404 114.137 5.33669 144.563 1.18437 177.294C-2.96795 210.025 3.86613 243.208 20.6143 271.636C37.3625 300.065 63.0771 322.13 93.7233 334.37C124.369 346.61 158.213 348.332 189.944 339.266C221.675 330.199 249.497 310.858 269.046 284.277C288.594 257.695 298.763 225.377 297.956 192.394C297.149 159.411 285.412 127.629 264.586 102.035ZM149.016 306.184C127.226 306.184 105.926 299.724 87.8082 287.621C69.6906 275.518 55.5699 258.315 47.2316 238.189C38.8934 218.062 36.7123 195.916 40.964 174.55C45.2158 153.184 55.7094 133.558 71.118 118.155C86.5265 102.752 106.158 92.2625 127.529 88.0138C148.901 83.765 171.053 85.9477 191.184 94.2856C211.314 102.624 228.52 116.742 240.624 134.857C252.729 152.971 259.188 174.267 259.186 196.051C259.184 225.261 247.575 253.274 226.915 273.927C206.254 294.581 178.234 306.184 149.016 306.184Z" fill="#DEDEDE"/>
<circle cx="149" cy="196" r="117" stroke="#D22856" stroke-width="18"/>
</svg>

<svg width="298" height="345" fill="none" xmlns="http://www.w3.org/2000/svg"><path d="M264.586 102.035l5.35-5.359c7.72-7.718 9.13-18.935 3.13-24.924-6-5.988-17.22-4.599-24.93 3.12l-5.39 5.388a148.207 148.207 0 00-74.73-31.972V38.7h7.66c10.91 0 19.84-8.708 19.84-19.345 0-10.637-8.93-19.355-19.84-19.355h-53.32c-10.91 0-19.84 8.708-19.84 19.355 0 10.648 8.93 19.345 19.84 19.345h7.66v9.588a149.014 149.014 0 00-86.459 42.5 148.931 148.931 0 00-22.943 180.848 148.988 148.988 0 0073.11 62.734 149.035 149.035 0 0096.22 4.896 149.01 149.01 0 0079.102-54.989 148.935 148.935 0 00-4.46-182.242zm-115.57 204.149c-21.79 0-43.09-6.46-61.208-18.563a110.151 110.151 0 01-40.576-49.432 110.118 110.118 0 0123.886-120.034 110.18 110.18 0 0156.411-30.141 110.198 110.198 0 0163.655 6.272 110.162 110.162 0 0149.44 40.571 110.117 110.117 0 01-13.709 139.07 110.183 110.183 0 01-77.899 32.257z" fill="#DEDEDE"/><circle cx="149" cy="196" r="117" stroke="#D22856" stroke-width="18"/></svg>
